icons/op-project-types-24.svg

<svg width="24" height="24" viewBox="0 0 24 24" fill="none" xmlns="http://www.w3.org/2000/svg">
<path d="M17.3919 7.71875L13.6712 4H5V20H10.6126V18.5625H6.45045V5.4375H13.0721L15.9414 8.3125V11.25H17.3919V7.71875ZM12.2207 14.9375L15.6261 16.625L19 14.9375L15.6261 13.2812L12.2207 14.9375ZM15.6261 17.25L13.5135 16.2188L12.2207 16.625L15.6261 18.3125L19 16.625L17.8018 16.1875L15.6261 17.25ZM15.6261 18.9375L13.5135 17.9062L12.2207 18.3125L15.6261 20L19 18.3125L17.8018 17.875L15.6261 18.9375Z" fill="black"/>
</svg>

<svg xmlns="http://www.w3.org/2000/svg" width="24" height="24" viewBox="0 0 24 24"><path d="M17.392 7.719 13.671 4H5v16h5.613v-1.438H6.45V5.438h6.622l2.869 2.874v2.938h1.451V7.719Zm-5.171 7.219 3.405 1.687L19 14.938l-3.374-1.657-3.405 1.657Zm3.405 2.312-2.112-1.031-1.293.406 3.405 1.687L19 16.625l-1.198-.437-2.176 1.062Zm0 1.688-2.112-1.032-1.293.406L15.626 20 19 18.312l-1.198-.437-2.176 1.063Z"/></svg>
